X:1
T:Paul Jones
A:George Edwards
B:Folksongs of the Catskills
C:Norman Cazden, Herbert Haufrecht and Norman Studer
L:1/8
M:3/4
N:Edited and Annotated, With a Study of Tune Formation and Relationships,
N:Folk Songs of the Catskills
N:by Norman Cazden, Herbert Haufrecht and Norman Studer
O:Catskills Mountain Region
Q:1/4=160
R:Waltz
S:Catskill Mountains Region
Z:Jackie Fritts
K:C Major
dc|A2B2A2|EC3D|E3DD2|D4G2|
w:An A-mer-i-can frig-ate from bal-ti-more came, Our
A2d2e2|d2c2d2|ed3c2|A4G2|
w:guns mount-ed for-ty, called 'Rich-ard' by name; While
A2d2e2|d2c2d2|e2A2B2|c4d2|
w:cruis-ing the Chan-nel from old Eng-e-lond, Our
A2B2A2|eC3D2|E2D2D2|D4|]
w:no-ble com-mand-er Paul Jones was the man.